X:1
T:Title
%%score { ( 1 4 ) | ( 2 3 ) }
L:1/8
Q:1/4=212
M:2/2
K:F
V:1 treble nm="Grand Piano"
V:4 treble 
V:2 bass 
V:3 bass 
V:1
 [CFA]4 .[CGc]4 | [CFA]4 .[CEG]4 | [A,DF]4 .[A,^CA]4 | [DF]4 [B,D]4 | [B,DG]4 .[B,DB]4 | %5
w: A.~J.~Foxwell *|||||
 [B,EG]4 .[G,CE]4 | [F,A,F]4 [B,CG]4 | [A,CA]8 | [CFA]4 [D^Fd]4 | [DGB]4 [B,DG]4 | [CG]4 [CEc]4 | %11
w: ||||||
 [CFA]4 [A,CF]4 | [A,DF]4 [DGB]4 | [^CEA]4 D4 | [A,DF]4[K:bass] .[A,^CE]4 | [F,D]8 | %16
w: |||||
 [DFB]6 [DFB]2 | [CFA]4 [A,F]4 | [Ec]4 [CB]2- [CGB]2 | A8 | [Fd]6 [Fd]2 | [CFc]4 F2- [FG]2 | %22
w: ||||||
 [CFA]8 | [B,EG]8 | [A,F]8 |] %25
w: |||
V:2
 F,4 z2[K:treble] B2 | F,4 z2 B,2 | D,4 z2 G2 | B,,4 B,,4 | G,,4 z2 A2 | C,4 z2 B,2 | D,4 E,4 | %7
 F,8 | F,4 D,4 | G,4 G,2 F,2 | E,4 C,4 | F,4 F,4 | D,4 G,,4 | A,,4 z2 E2 | A,,4 z2 G,2 | D,8 | %16
 B,,6 B,,2 | F,4 F,4 | [C,G,]4 D,2 E,2 | [F,CF]8 | [B,,B,]6 [B,,B,]2 | A,,4 z2 B,2 | C,8 | C,8 | %24
 F,8 |] %25
V:3
 z4 E,4[K:treble] | z4 C,4 | z4 A,,4 | x8 | z4 G,,4 | z4 C,4 | x8 | x8 | x8 | x8 | x8 | x8 | x8 | %13
 z4 B,,4 | z4 A,,4 | x8 | x8 | x8 | x8 | x8 | x8 | z4 D,4 | x8 | x8 | x8 |] %25
V:4
 x8 | x8 | x8 | x8 | x8 | x8 | x8 | x8 | x8 | x8 | x8 | x8 | x8 | x8 | x4[K:bass] x4 | x8 | x8 | %17
 x8 | z4 .F4 | x8 | x8 | z4 .A,4 | x8 | x8 | x8 |] %25

